symbolic/64x64/places/folder-oomox-publicshare-open.svg

<svg xmlns="http://www.w3.org/2000/svg" width="64" height="64" version="1"><rect style="opacity:.2" width="56" height="36" x="4" y="22" rx="2.8" ry="2.8"/><path style="fill:#1f252a" d="M4 46.2C4 47.751 5.249 49 6.8 49h50.4c1.551 0 2.8-1.249 2.8-2.8V15.8c0-1.551-1.249-2.8-2.8-2.8H32c-4.2 0-5.6-6-9.8-6H6.8A2.794 2.794 0 0 0 4 9.8"/><rect style="opacity:.2" width="56" height="30" x="4" y="26" rx="2.8" ry="2.8"/><rect style="fill:#e4e4e4" width="48" height="22" x="8" y="16" rx="2.8" ry="2.8"/><rect style="fill:#323a41" width="56" height="30" x="4" y="27" rx="2.8" ry="2.8"/><path style="opacity:.1;fill:#fff" d="M6.8 7C5.25 7 4 8.25 4 9.8v1.001A2.795 2.795 0 0 1 6.8 8H22.2c4.2 0 5.601 6 9.801 6h25.199A2.796 2.796 0 0 1 60 16.801v-1A2.796 2.796 0 0 0 57.199 13H32c-4.2 0-5.601-6-9.801-6z"/><path style="fill:#1f252a" d="M26.82 37.602a.93.93 0 0 0-.202.07c-.646.302-.814 1.246-.372 2.12.356.704.986 1.14 1.558 1.126C28.236 43.256 29.952 45 32 45c2.048 0 3.764-1.744 4.196-4.082.572.014 1.202-.422 1.558-1.126.442-.874.274-1.818-.372-2.12a.93.93 0 0 0-.202-.07C37.096 35.046 34.812 33 32 33s-5.096 2.046-5.18 4.602zM31.992 47c-1.166 0-2.218-.58-2.992-1.504-3.262.482-6.782 1.18-7 1.976v2.992c0 .298.222.536.5.536h19c.278 0 .5-.238.5-.536v-2.992c-.232-.828-3.658-1.554-6.864-2.038a2.886 2.886 0 0 1-1.014.886l-.004.004a3.703 3.703 0 0 1-2.11.676"/></svg>

<svg xmlns="http://www.w3.org/2000/svg" width="64" height="64" version="1">
 <rect style="opacity:0.2" width="56" height="36" x="4" y="22" rx="2.8" ry="2.8"/>
 <path style="fill:#1f252a" d="M 4,46.2 C 4,47.751 5.2488,49 6.8,49 H 57.2 C 58.751,49 60,47.751 60,46.2 V 15.8 C 60,14.249 58.751,13 57.2,13 H 32 C 27.8,13 26.4,7 22.2,7 H 6.8 C 5.2488,7 4,8.2488 4,9.8"/>
 <rect style="opacity:0.2" width="56" height="30" x="4" y="26" rx="2.8" ry="2.8"/>
 <rect style="fill:#e4e4e4" width="48" height="22" x="8" y="16" rx="2.8" ry="2.8"/>
 <rect style="fill:#323a41" width="56" height="30" x="4" y="27" rx="2.8" ry="2.8"/>
 <path style="opacity:0.1;fill:#ffffff" d="M 6.8008,7 C 5.2496,7 4,8.2496 4,9.8008 V 10.801 C 4,9.2496 5.2496,8 6.8008,8 H 22.199 C 26.399,8 27.8,14 32,14 H 57.199 C 58.75,14 60,15.25 60,16.801 V 15.801 C 60,14.25 58.75,13 57.199,13 H 32 C 27.8,13 26.399,7 22.199,7 Z"/>
 <path style="fill:#1f252a" d="M 26.82,37.602 C 26.752,37.616 26.682,37.642 26.618,37.672 25.972,37.974 25.804,38.918 26.246,39.792 26.602,40.496 27.232,40.932 27.804,40.918 28.236,43.256 29.952,45 32,45 34.048,45 35.764,43.256 36.196,40.918 36.768,40.932 37.398,40.496 37.754,39.792 38.196,38.918 38.028,37.974 37.382,37.672 37.318,37.642 37.248,37.616 37.18,37.602 37.096,35.046 34.812,33 32,33 29.188,33 26.904,35.046 26.82,37.602 Z M 31.992,47 C 30.826,47 29.774,46.42 29,45.496 25.738,45.978 22.218,46.676 22,47.472 V 50.464 C 22,50.762 22.222,51 22.5,51 H 41.5 C 41.778,51 42,50.762 42,50.464 V 47.472 C 41.768,46.644 38.342,45.918 35.136,45.434 34.89,45.778 34.562,46.088 34.122,46.32 L 34.118,46.324 C 33.494,46.754 32.772,47 32.008,47"/>
</svg>
